svgs/sharp-solid/arrow-up-from-dotted-line.svg

<svg xmlns="http://www.w3.org/2000/svg" viewBox="0 0 448 512"><!--! Font Awesome Pro 6.6.0 by @fontawesome - https://fontawesome.com License - https://fontawesome.com/license (Commercial License) Copyright 2024 Fonticons, Inc. --><path d="M246.6 57.4L224 34.7 201.4 57.4l-128 128L50.7 208 96 253.3l22.6-22.6L192 157.3 192 320l0 32 64 0 0-32 0-162.7 73.4 73.4L352 253.3 397.3 208l-22.6-22.6-128-128zM64 416L0 416l0 64 64 0 0-64zm96 0l-64 0 0 64 64 0 0-64zm32 64l64 0 0-64-64 0 0 64zm160-64l-64 0 0 64 64 0 0-64zm32 0l0 64 64 0 0-64-64 0z"/></svg>

<svg xmlns="http://www.w3.org/2000/svg" viewBox="0 0 448 512"><!--! Font Awesome Pro 6.4.0 by @fontawesome - https://fontawesome.com License - https://fontawesome.com/license (Commercial License) Copyright 2023 Fonticons, Inc. --><path d="M246.6 57.4L224 34.7 201.4 57.4l-128 128L50.7 208 96 253.3l22.6-22.6L192 157.3V320v32h64V320 157.3l73.4 73.4L352 253.3 397.3 208l-22.6-22.6-128-128zM64 416H0v64H64V416zm96 0H96v64h64V416zm32 64h64V416H192v64zm160-64H288v64h64V416zm32 0v64h64V416H384z"/></svg>
